icons/lines/image.svg

<svg xmlns="http://www.w3.org/2000/svg" width="24" height="24" viewBox="0 0 24 24" fill="none" stroke="currentColor" stroke-width="2" stroke-linecap="round" stroke-linejoin="round" >
  <path d="M21.6799 16.96L18.5499 9.65001C17.4899 7.17001 15.5399 7.07001 14.2299 9.43001L12.3399 12.84C11.3799 14.57 9.58993 14.72 8.34993 13.17L8.12993 12.89C6.83993 11.27 5.01993 11.47 4.08993 13.32L2.36993 16.77C1.15993 19.17 2.90993 22 5.58993 22H18.3499C20.9499 22 22.6999 19.35 21.6799 16.96Z"/>
  <path d="M6.97021 8C8.62707 8 9.97021 6.65685 9.97021 5C9.97021 3.34315 8.62707 2 6.97021 2C5.31336 2 3.97021 3.34315 3.97021 5C3.97021 6.65685 5.31336 8 6.97021 8Z"/>
  </svg>

<svg xmlns="http://www.w3.org/2000/svg" width="24" height="24" viewBox="0 0 24 24" fill="none" stroke="currentColor" stroke-width="2" stroke-linecap="round" stroke-linejoin="round">
  <path d="M18.55 9.65c-1.06-2.48-3.01-2.58-4.32-.22l-1.89 3.41c-.96 1.73-2.75 1.88-3.99.33l-.22-.28c-1.29-1.62-3.11-1.42-4.04.43l-1.72 3.45C1.16 19.17 2.91 22 5.59 22h12.76c2.6 0 4.35-2.65 3.33-5.04z" />
  <circle cx="6.97" cy="5" r="3" />
</svg>
